**harmony	**harte	**kern	**silbe	**rhyme	**timestamp	**phrase	**leadinstrument
*M4/4	*M4/4	*ICvox	*	*	*	*	*
*	*	*VRlead	*	*	*	*	*
*	*	*Hstimme	*	*	*	*	*
*E:	*E:	*E:	*	*	*	*	*
*	*	*M4/4	*	*	*	*	*
*	*	*clefF4	*	*	*	*	*
1r;	1r	r;	.	.	0	.	r
=1	=1	=1	=1	=1	=1	=1	=1
*>Letter>A	*>Letter>A	*>Letter>A	*>Letter>A	*>Letter>A	*>Letter>A	*>Letter>A	*>Letter>A
*>Label>Intro	*>Label>Intro	*>Label>Intro	*>Label>Intro	*>Label>Intro	*>Label>Intro	*>Label>Intro	*>Label>Intro
1N	N	1r	.	.	0.139	newline	r
=2	=2	=2	=2	=2	=2	=2	=2
1N	N	1r	.	.	1.895	.	r
=3	=3	=3	=3	=3	=3	=3	=3
1EM	E:maj	1r	.	.	3.651	newline	r
=4	=4	=4	=4	=4	=4	=4	=4
1C#m	C#:min	1r	.	.	5.386	.	r
=5	=5	=5	=5	=5	=5	=5	=5
1AM	A:maj	1r	.	.	7.12	.	r
=6	=6	=6	=6	=6	=6	=6	=6
1BM	B:maj	2.r	.	.	8.854	.	r
.	.	4E	Well	.	.	.	.
=7	=7	=7	=7	=7	=7	=7	=7
*>Letter>B	*>Letter>B	*>Letter>B	*>Letter>B	*>Letter>B	*>Letter>B	*>Letter>B	*>Letter>B
*>Label>Chorus	*>Label>Chorus	*>Label>Chorus	*>Label>Chorus	*>Label>Chorus	*>Label>Chorus	*>Label>Chorus	*>Label>Chorus
1EM	E:maj	4G#	where	.	10.588	newline	voice
.	.	4B	oh	.	.	.	.
.	.	4c#	where	.	.	.	.
.	.	8E	can	.	.	.	.
.	.	[8E	my	.	.	.	.
=8	=8	=8	=8	=8	=8	=8	=8
1C#m	C#:min	8E]	_	.	12.363	.	voice
.	.	4G#	ba-	.	.	.	.
.	.	8B	-by	.	.	.	.
.	.	4c#	be	A	.	.	.
.	.	4r	.	.	.	.	.
=9	=9	=9	=9	=9	=9	=9	=9
1AM	A:maj	8r	.	.	14.138	.	voice
.	.	8E	The	.	.	.	.
.	.	4E	Lord	.	.	.	.
.	.	8E	took	.	.	.	.
.	.	4C#	her	.	.	.	.
.	.	8E	a-	.	.	.	.
=10	=10	=10	=10	=10	=10	=10	=10
1BM	B:maj	4F#	-way	.	15.913	.	voice
.	.	8G#	from	.	.	.	.
.	.	4.F#	me	A	.	.	.
.	.	4r	.	.	.	.	.
=11	=11	=11	=11	=11	=11	=11	=11
1EM	E:maj	8r	.	.	17.688	newline	voice
.	.	8E	She's	.	.	.	.
.	.	8G#	gone	.	.	.	.
.	.	8B	to	.	.	.	.
.	.	8c#	hea-	.	.	.	.
.	.	8c#	-ven	.	.	.	.
.	.	8E	So	.	.	.	.
.	.	8E	I	.	.	.	.
=12	=12	=12	=12	=12	=12	=12	=12
1C#m	C#:min	8G#	got	.	19.473	.	voice
.	.	8G#	to	.	.	.	.
.	.	8B	be	.	.	.	.
.	.	4c#	good	B	.	.	.
.	.	4r	.	.	.	.	.
.	.	8G#	So	.	.	.	.
=13	=13	=13	=13	=13	=13	=13	=13
1AM	A:maj	8F#	I	.	21.257	.	voice
.	.	8E	can	.	.	.	.
.	.	8E	see	.	.	.	.
.	.	8E	my	.	.	.	.
.	.	8E	ba-	.	.	.	.
.	.	8E	-by	.	.	.	.
.	.	8E	when	.	.	.	.
.	.	8E	I	.	.	.	.
=14	=14	=14	=14	=14	=14	=14	=14
1BM	B:maj	8G#	leave	.	23.042	.	voice
.	.	2F#	_	.	.	.	.
.	.	8E	uh	.	.	.	.
.	.	4E	this	.	.	.	.
=15	=15	=15	=15	=15	=15	=15	=15
*>Letter>A2	*>Letter>A2	*>Letter>A2	*>Letter>A2	*>Letter>A2	*>Letter>A2	*>Letter>A2	*>Letter>A2
*>Label>Trans	*>Label>Trans	*>Label>Trans	*>Label>Trans	*>Label>Trans	*>Label>Trans	*>Label>Trans	*>Label>Trans
1EM	E:maj	2.E	world	B	24.827	newline	voice
.	.	4r	.	.	.	.	.
=16	=16	=16	=16	=16	=16	=16	=16
1EM	E:maj	2.r	.	.	26.582	.	voice
.	.	8E	We	.	.	.	.
.	.	8E	were	.	.	.	.
=17	=17	=17	=17	=17	=17	=17	=17
*>Letter>C	*>Letter>C	*>Letter>C	*>Letter>C	*>Letter>C	*>Letter>C	*>Letter>C	*>Letter>C
*>Label>Verse	*>Label>Verse	*>Label>Verse	*>Label>Verse	*>Label>Verse	*>Label>Verse	*>Label>Verse	*>Label>Verse
1EM	E:maj	4G#	out	.	28.338	newline	voice
.	.	8B	on	.	.	.	.
.	.	8B	a	.	.	.	.
.	.	4c#	date	.	.	.	.
.	.	8E	in	.	.	.	.
.	.	[8E	my	.	.	.	.
=18	=18	=18	=18	=18	=18	=18	=18
1C#m	C#:min	8E]	_	.	30.095	.	voice
.	.	4G#	Da-	.	.	.	.
.	.	8B	-ddy's	.	.	.	.
.	.	4c#	car	C	.	.	.
.	.	4r	.	.	.	.	.
=19	=19	=19	=19	=19	=19	=19	=19
1AM	A:maj	8r	.	.	31.852	.	voice
.	.	8E	We	.	.	.	.
.	.	8E	ha-	.	.	.	.
.	.	8E	-dn't	.	.	.	.
.	.	8E	dri-	.	.	.	.
.	.	4.E	-ven	.	.	.	.
=20	=20	=20	=20	=20	=20	=20	=20
1BM	B:maj	4F#	ve-	.	33.609	.	voice
.	.	8G#	-ry	.	.	.	.
.	.	4.F#	far	C	.	.	.
.	.	4r	.	.	.	.	.
=21	=21	=21	=21	=21	=21	=21	=21
1EM	E:maj	8G#	There	.	35.367	newline	voice
.	.	8B	in	.	.	.	.
.	.	8B	the	.	.	.	.
.	.	4.c#	road	.	.	.	.
.	.	4r	.	.	.	.	.
=22	=22	=22	=22	=22	=22	=22	=22
1C#m	C#:min	4G#	straight	.	37.161	.	voice
.	.	8B	a-	.	.	.	.
.	.	4.c#	-head	D	.	.	.
.	.	4r	.	.	.	.	.
=23	=23	=23	=23	=23	=23	=23	=23
1AM	A:maj	8r	.	.	38.955	.	voice
.	.	8E	The	.	.	.	.
.	.	8E	car	.	.	.	.
.	.	8E	was	.	.	.	.
.	.	4.E	stalled	.	.	.	.
.	.	8E	the	.	.	.	.
=24	=24	=24	=24	=24	=24	=24	=24
1BM	B:maj	8F#	en-	.	40.75	.	voice
.	.	8F#	-gine	.	.	.	.
.	.	8G#	was	.	.	.	.
.	.	4.F#	dead	D	.	.	.
.	.	4r	.	.	.	.	.
=25	=25	=25	=25	=25	=25	=25	=25
1EM	E:maj	8G#	I	.	42.544	newline	voice
.	.	8B	coul-	.	.	.	.
.	.	8B	-dn't	.	.	.	.
.	.	4c#	stop	.	.	.	.
.	.	8r	.	.	.	.	.
.	.	8E	so	.	.	.	.
.	.	8E	I	.	.	.	.
=26	=26	=26	=26	=26	=26	=26	=26
1C#m	C#:min	8G#	swerved	.	44.314	.	voice
.	.	8B	to	.	.	.	.
.	.	8B	the	.	.	.	.
.	.	4c#	right	E	.	.	.
.	.	4.r	.	.	.	.	.
=27	=27	=27	=27	=27	=27	=27	=27
1AM	A:maj	8E	Ne-	.	46.084	.	voice
.	.	8E	-ver	.	.	.	.
.	.	8E	for-	.	.	.	.
.	.	4E	-get	.	.	.	.
.	.	4r	.	.	.	.	.
.	.	8E	the	.	.	.	.
=28	=28	=28	=28	=28	=28	=28	=28
1BM	B:maj	4F#	sound	.	47.855	.	voice
.	.	8G#	that	.	.	.	.
.	.	4.F#	night	E	.	.	.
.	.	8r	.	.	.	.	.
.	.	8E	The	.	.	.	.
=29	=29	=29	=29	=29	=29	=29	=29
1EM	E:maj	4G#	cry-	.	49.625	newline	voice
.	.	8B	-in'	.	.	.	.
.	.	2c#	tires	.	.	.	.
.	.	8E	the	.	.	.	.
=30	=30	=30	=30	=30	=30	=30	=30
1C#m	C#:min	8G#	bus-	.	51.411	.	voice
.	.	4B	-tin'	.	.	.	.
.	.	4.c#	glass	F	.	.	.
.	.	8r	.	.	.	.	.
.	.	8E	The	.	.	.	.
=31	=31	=31	=31	=31	=31	=31	=31
1AM	A:maj	4E	pain-	.	53.196	.	voice
.	.	8E	-ful	.	.	.	.
.	.	2E	scream	.	.	.	.
.	.	8E	that	.	.	.	.
=32	=32	=32	=32	=32	=32	=32	=32
1BM	B:maj	2.F#	I	.	54.982	.	voice
.	.	4D#	heard	.	.	.	.
=33	=33	=33	=33	=33	=33	=33	=33
*>Letter>A2	*>Letter>A2	*>Letter>A2	*>Letter>A2	*>Letter>A2	*>Letter>A2	*>Letter>A2	*>Letter>A2
*>Label>Trans	*>Label>Trans	*>Label>Trans	*>Label>Trans	*>Label>Trans	*>Label>Trans	*>Label>Trans	*>Label>Trans
1EM	E:maj	2.E	last	F	56.768	newline	voice
.	.	4r	.	.	.	.	.
=34	=34	=34	=34	=34	=34	=34	=34
1EM	E:maj	2.r	.	.	58.526	.	voice
.	.	4E	Well	.	.	.	.
=35	=35	=35	=35	=35	=35	=35	=35
*>Letter>B	*>Letter>B	*>Letter>B	*>Letter>B	*>Letter>B	*>Letter>B	*>Letter>B	*>Letter>B
*>Label>Chorus	*>Label>Chorus	*>Label>Chorus	*>Label>Chorus	*>Label>Chorus	*>Label>Chorus	*>Label>Chorus	*>Label>Chorus
1EM	E:maj	4G#	where	.	60.284	newline	voice
.	.	4B	oh	.	.	.	.
.	.	4B	where	.	.	.	.
.	.	8B	can	.	.	.	.
.	.	[8B	my	.	.	.	.
=36	=36	=36	=36	=36	=36	=36	=36
1C#m	C#:min	8B]	_	.	62.028	.	voice
.	.	4e	ba-	.	.	.	.
.	.	8d#	-by	.	.	.	.
.	.	4.c#	be	A	.	.	.
.	.	8r	.	.	.	.	.
=37	=37	=37	=37	=37	=37	=37	=37
1AM	A:maj	8r	.	.	63.771	.	voice
.	.	8e	The	.	.	.	.
.	.	4e	Lord	.	.	.	.
.	.	8e	took	.	.	.	.
.	.	4e	her	.	.	.	.
.	.	8c#	a-	.	.	.	.
=38	=38	=38	=38	=38	=38	=38	=38
1BM	B:maj	4d#	-way	.	65.514	.	voice
.	.	8c#	from	.	.	.	.
.	.	4.B	me	A	.	.	.
.	.	4r	.	.	.	.	.
=39	=39	=39	=39	=39	=39	=39	=39
1EM	E:maj	8r	.	.	67.257	newline	voice
.	.	8e	She's	.	.	.	.
.	.	8e	gone	.	.	.	.
.	.	8c#	to	.	.	.	.
.	.	8e	hea-	.	.	.	.
.	.	8c#	-ven	.	.	.	.
.	.	8e	so	.	.	.	.
.	.	8c#	I	.	.	.	.
=40	=40	=40	=40	=40	=40	=40	=40
1C#m	C#:min	8e	got	.	69.049	.	voice
.	.	8e	to	.	.	.	.
.	.	8e	be	.	.	.	.
.	.	4.c#	good	B	.	.	.
.	.	8r	.	.	.	.	.
.	.	8G#	So	.	.	.	.
=41	=41	=41	=41	=41	=41	=41	=41
1AM	A:maj	8F#	I	.	70.841	.	voice
.	.	8E	can	.	.	.	.
.	.	8E	see	.	.	.	.
.	.	8E	my	.	.	.	.
.	.	8E	ba-	.	.	.	.
.	.	8E	-by	.	.	.	.
.	.	8E	when	.	.	.	.
.	.	8E	I	.	.	.	.
=42	=42	=42	=42	=42	=42	=42	=42
1BM	B:maj	4G#	leave	.	72.633	.	voice
.	.	4.F#	_	.	.	.	.
.	.	8E	uh	.	.	.	.
.	.	4E	this	.	.	.	.
=43	=43	=43	=43	=43	=43	=43	=43
*>Letter>A2	*>Letter>A2	*>Letter>A2	*>Letter>A2	*>Letter>A2	*>Letter>A2	*>Letter>A2	*>Letter>A2
*>Label>Trans	*>Label>Trans	*>Label>Trans	*>Label>Trans	*>Label>Trans	*>Label>Trans	*>Label>Trans	*>Label>Trans
1EM	E:maj	2.E	world	B	74.424	newline	voice
.	.	4r	.	.	.	.	.
=44	=44	=44	=44	=44	=44	=44	=44
1EM	E:maj	2.r	.	.	76.173	.	voice
.	.	8E	Well	.	.	.	.
.	.	8E	when	.	.	.	.
=45	=45	=45	=45	=45	=45	=45	=45
*>Letter>C	*>Letter>C	*>Letter>C	*>Letter>C	*>Letter>C	*>Letter>C	*>Letter>C	*>Letter>C
*>Label>Verse	*>Label>Verse	*>Label>Verse	*>Label>Verse	*>Label>Verse	*>Label>Verse	*>Label>Verse	*>Label>Verse
1EM	E:maj	4G#	I	.	77.921	newline	voice
.	.	8B	woke	.	.	.	.
.	.	8c#	up	.	.	.	.
.	.	8r	.	.	.	.	.
.	.	8E	The	.	.	.	.
.	.	8E	rain	.	.	.	.
.	.	8E	was	.	.	.	.
=46	=46	=46	=46	=46	=46	=46	=46
1C#m	C#:min	4G#	pour-	.	79.705	.	voice
.	.	8B	-in'	.	.	.	.
.	.	4.c#	down	G	.	.	.
.	.	4r	.	.	.	.	.
=47	=47	=47	=47	=47	=47	=47	=47
1AM	A:maj	4E	There	.	81.489	.	voice
.	.	8E	were	.	.	.	.
.	.	4E	pe-	.	.	.	.
.	.	8E	-ople	.	.	.	.
.	.	8E	stand-	.	.	.	.
.	.	8E	-ing	.	.	.	.
=48	=48	=48	=48	=48	=48	=48	=48
1BM	B:maj	4F#	all	.	83.274	.	voice
.	.	8G#	a-	.	.	.	.
.	.	4.F#	-round	G	.	.	.
.	.	4r	.	.	.	.	.
=49	=49	=49	=49	=49	=49	=49	=49
1EM	E:maj	4G#	Some-	.	85.058	newline	voice
.	.	8B	-thing	.	.	.	.
.	.	4c#	warm	.	.	.	.
.	.	8E	uh	.	.	.	.
.	.	8E	run-	.	.	.	.
.	.	8E	-ning	.	.	.	.
=50	=50	=50	=50	=50	=50	=50	=50
1C#m	C#:min	4G#	in	.	86.843	.	voice
.	.	8B	my	.	.	.	.
.	.	4.c#	eyes	E	.	.	.
.	.	4r	.	.	.	.	.
=51	=51	=51	=51	=51	=51	=51	=51
1AM	A:maj	4E	But	.	88.627	.	voice
.	.	8E	I	.	.	.	.
.	.	4E	found	.	.	.	.
.	.	8E	my	.	.	.	.
.	.	8E	ba-	.	.	.	.
.	.	8E	-by	.	.	.	.
=52	=52	=52	=52	=52	=52	=52	=52
1BM	B:maj	8F#	some-	.	90.412	.	voice
.	.	4F#	-how	.	.	.	.
.	.	8G#	that	.	.	.	.
.	.	4F#	night	E	.	.	.
.	.	8r	.	.	.	.	.
.	.	8E	I	.	.	.	.
=53	=53	=53	=53	=53	=53	=53	=53
1EM	E:maj	4G#	raised	.	92.197	newline	voice
.	.	8B	her	.	.	.	.
.	.	4c#	head	H	.	.	.
.	.	8E	and	.	.	.	.
.	.	8E	when	.	.	.	.
.	.	8E	she	.	.	.	.
=54	=54	=54	=54	=54	=54	=54	=54
1C#m	C#:min	4G#	smiled	.	93.985	.	voice
.	.	8B	and	.	.	.	.
.	.	4c#	said	H	.	.	.
.	.	8r	.	.	.	.	.
.	.	4r	.	.	.	.	.
=55	=55	=55	=55	=55	=55	=55	=55
1AM	A:maj	4e	Hold	.	95.773	.	voice
.	.	8e	me	.	.	.	.
.	.	4e	dar-	.	.	.	.
.	.	8e	-ling	.	.	.	.
.	.	8e	for	.	.	.	.
.	.	8c#	a	.	.	.	.
=56	=56	=56	=56	=56	=56	=56	=56
1BM	B:maj	4d#	li-	.	97.561	.	voice
.	.	8c#	-ttle	.	.	.	.
.	.	4.B	while	E	.	.	.
.	.	8r	.	.	.	.	.
.	.	8E	I	.	.	.	.
=57	=57	=57	=57	=57	=57	=57	=57
1EM	E:maj	4G#	held	.	99.349	newline	voice
.	.	8B	her	.	.	.	.
.	.	4c#	close	.	.	.	.
.	.	8E	I	.	.	.	.
.	.	8E	kissed	.	.	.	.
.	.	8E	her	.	.	.	.
=58	=58	=58	=58	=58	=58	=58	=58
1C#m	C#:min	8G#	our	.	101.126	.	voice
.	.	4B	last	.	.	.	.
.	.	4c#	kiss	I	.	.	.
.	.	4r	.	.	.	.	.
.	.	8E	I	.	.	.	.
=59	=59	=59	=59	=59	=59	=59	=59
1AM	A:maj	4E	found	.	102.902	.	voice
.	.	8E	the	.	.	.	.
.	.	4.E	love	.	.	.	.
.	.	8E	that	.	.	.	.
.	.	8E	I	.	.	.	.
=60	=60	=60	=60	=60	=60	=60	=60
1BM	B:maj	8F#	knew	.	104.679	.	voice
.	.	8F#	I	.	.	.	.
.	.	8G#	would	.	.	.	.
.	.	4.F#	miss	I	.	.	.
.	.	8r	.	.	.	.	.
.	.	8E	But	.	.	.	.
=61	=61	=61	=61	=61	=61	=61	=61
1EM	E:maj	4G#	now	.	106.455	newline	voice
.	.	8B	she's	.	.	.	.
.	.	4.c#	gone	.	.	.	.
.	.	8E	e-	.	.	.	.
.	.	8E	-ven	.	.	.	.
=62	=62	=62	=62	=62	=62	=62	=62
1C#m	C#:min	8G#	though	.	108.252	.	voice
.	.	8G#	I	.	.	.	.
.	.	8B	hold	.	.	.	.
.	.	8B	her	.	.	.	.
.	.	4c#	tight	E	.	.	.
.	.	8r	.	.	.	.	.
.	.	8G#	I	.	.	.	.
=63	=63	=63	=63	=63	=63	=63	=63
1AM	A:maj	4F#	lost	.	110.048	.	voice
.	.	8E	my	.	.	.	.
.	.	4.E	love	.	.	.	.
.	.	4G#	my	.	.	.	.
=64	=64	=64	=64	=64	=64	=64	=64
1BM	B:maj	4.F#	life	E	111.845	.	voice
.	.	8r	.	.	.	.	.
.	.	4r	.	.	.	.	.
.	.	4D#	that	.	.	.	.
=65	=65	=65	=65	=65	=65	=65	=65
*>Letter>A2	*>Letter>A2	*>Letter>A2	*>Letter>A2	*>Letter>A2	*>Letter>A2	*>Letter>A2	*>Letter>A2
*>Label>Trans	*>Label>Trans	*>Label>Trans	*>Label>Trans	*>Label>Trans	*>Label>Trans	*>Label>Trans	*>Label>Trans
1EM	E:maj	4E	night	E	113.641	newline	voice
.	.	4r	.	.	.	.	.
.	.	2r	.	.	.	.	.
=66	=66	=66	=66	=66	=66	=66	=66
1EM	E:maj	2.r	.	.	115.38	.	voice
.	.	4E	Well	.	.	.	.
=67	=67	=67	=67	=67	=67	=67	=67
*>Letter>B	*>Letter>B	*>Letter>B	*>Letter>B	*>Letter>B	*>Letter>B	*>Letter>B	*>Letter>B
*>Label>Chorus	*>Label>Chorus	*>Label>Chorus	*>Label>Chorus	*>Label>Chorus	*>Label>Chorus	*>Label>Chorus	*>Label>Chorus
1EM	E:maj	4G#	where	.	117.119	newline	voice
.	.	4B	oh	.	.	.	.
.	.	4B	where	.	.	.	.
.	.	8B	can	.	.	.	.
.	.	[8B	my	.	.	.	.
=68	=68	=68	=68	=68	=68	=68	=68
1C#m	C#:min	8B]	_	.	118.885	.	voice
.	.	4e	ba-	.	.	.	.
.	.	8d#	-by	.	.	.	.
.	.	4c#	be	A	.	.	.
.	.	4r	.	.	.	.	.
=69	=69	=69	=69	=69	=69	=69	=69
1AM	A:maj	8r	.	.	120.651	.	voice
.	.	8e	The	.	.	.	.
.	.	4e	Lord	.	.	.	.
.	.	8e	took	.	.	.	.
.	.	4e	her	.	.	.	.
.	.	8c#	a-	.	.	.	.
=70	=70	=70	=70	=70	=70	=70	=70
1BM	B:maj	4d#	-way	.	122.418	.	voice
.	.	8c#	from	.	.	.	.
.	.	4.B	me	A	.	.	.
.	.	4r	.	.	.	.	.
=71	=71	=71	=71	=71	=71	=71	=71
1EM	E:maj	8r	.	.	124.184	newline	voice
.	.	8e	She's	.	.	.	.
.	.	8e	gone	.	.	.	.
.	.	8c#	to	.	.	.	.
.	.	8e	hea-	.	.	.	.
.	.	8c#	-ven	.	.	.	.
.	.	8e	so	.	.	.	.
.	.	8c#	I	.	.	.	.
=72	=72	=72	=72	=72	=72	=72	=72
1C#m	C#:min	8e	got	.	125.976	.	voice
.	.	8e	to	.	.	.	.
.	.	8e	be	.	.	.	.
.	.	4c#	good	B	.	.	.
.	.	4r	.	.	.	.	.
.	.	8G#	So	.	.	.	.
=73	=73	=73	=73	=73	=73	=73	=73
1AM	A:maj	8F#	I	.	127.769	.	voice
.	.	8E	can	.	.	.	.
.	.	8E	see	.	.	.	.
.	.	8E	my	.	.	.	.
.	.	8E	ba-	.	.	.	.
.	.	8E	-by	.	.	.	.
.	.	8E	when	.	.	.	.
.	.	8E	I	.	.	.	.
=74	=74	=74	=74	=74	=74	=74	=74
1BM	B:maj	8G#	leave	.	129.561	.	voice
.	.	2F#	_	.	.	.	.
.	.	8E	uh	.	.	.	.
.	.	4E	this	.	.	.	.
=75	=75	=75	=75	=75	=75	=75	=75
*>Letter>A2	*>Letter>A2	*>Letter>A2	*>Letter>A2	*>Letter>A2	*>Letter>A2	*>Letter>A2	*>Letter>A2
*>Label>Trans	*>Label>Trans	*>Label>Trans	*>Label>Trans	*>Label>Trans	*>Label>Trans	*>Label>Trans	*>Label>Trans
1EM	E:maj	2.E	world	B	131.353	newline	voice
.	.	4r	.	.	.	.	.
=76	=76	=76	=76	=76	=76	=76	=76
1EM	E:maj	1r	.	.	133.042	.	voice
=77	=77	=77	=77	=77	=77	=77	=77
*>Letter>C2	*>Letter>C2	*>Letter>C2	*>Letter>C2	*>Letter>C2	*>Letter>C2	*>Letter>C2	*>Letter>C2
*>Label>Outro	*>Label>Outro	*>Label>Outro	*>Label>Outro	*>Label>Outro	*>Label>Outro	*>Label>Outro	*>Label>Outro
1EM	E:maj	[2e	Hmm	.	134.731	newline	voice
.	.	8e]	_	.	.	.	.
.	.	8e	_	.	.	.	.
.	.	8f#	_	.	.	.	.
.	.	8e	_	.	.	.	.
=78	=78	=78	=78	=78	=78	=78	=78
1C#m	C#:min	[2d#	_	.	136.506	.	voice
.	.	8d#]	_	.	.	.	.
.	.	8r	.	.	.	.	.
.	.	4r	.	.	.	.	.
=79	=79	=79	=79	=79	=79	=79	=79
1AM	A:maj	1e	Hmm	.	138.281	.	voice
=80	=80	=80	=80	=80	=80	=80	=80
1BM	B:maj	4d#	_	.	140.056	.	voice
.	.	8c#	_	.	.	.	.
.	.	4.B	_	.	.	.	.
.	.	4c#	_	.	.	.	.
=81	=81	=81	=81	=81	=81	=81	=81
*>Label>>Fadeout	*>Label>>Fadeout	*>Label>>Fadeout	*>Label>>Fadeout	*>Label>>Fadeout	*>Label>>Fadeout	*>Label>>Fadeout	*>Label>>Fadeout
1EM	E:maj	[2e	Hmm	.	141.831	newline	voice
.	.	8e]	_	.	.	.	.
.	.	8e	_	.	.	.	.
.	.	8f#	_	.	.	.	.
.	.	8e	_	.	.	.	.
=82	=82	=82	=82	=82	=82	=82	=82
1C#m	C#:min	[2d#	_	.	142.515	.	voice
.	.	8d#]	_	.	.	.	.
.	.	8r	.	.	.	.	.
.	.	4r	.	.	.	.	.
=83	=83	=83	=83	=83	=83	=83	=83
1AM	A:maj	1r	.	.	143.199	.	voice
=84	=84	=84	=84	=84	=84	=84	=84
1BM	B:maj	1r	.	.	143.883	.	voice
1r;	1r	r;	.	.	144.567	.	r
1r;	1r	r;	.	.	147.696	.	r
*-	*-	*-	*-	*-	*-	*-	*-
!!!BillboardChartDate: 1964/09/05, 1974/01/05, 1964/10/17
!!!BillboardPeak: 2, 2, 2
!!!BillboardWeeksOnChart: 20, 20, 20
!!!COC: J. Frank Wilson & The Cavaliers
!!!ENC: Nathaniel Condit-Schultz
!!!EST: Awating manual error checking and editing.
!!!OTL: Last Kiss
!!!RDF**chordsym: original McGill chord annotation + (implied pitch class set, with bass pitch in first position)
!!!RDF**harmony: **recip + pitch class of root + harmonic quality
!!!RDF**leadinstrument: original McGill primary instrumentation annotation
!!!RDF**phrase: newline = linebreak in original McGill transcription
!!!RDF**timestamp: McGill audio timestamp in seconds
!!!RDT: 2017/01/12/
!!!SampleActualRank: 73, 93,  5
!!!SampleID#: 54, 247, 402
!!!SampleTargetRank: 71, 94,  4
!!!MBID: 0aaa4d1e-1da2-4732-aabd-1901947b483b
